src/assets/all-articles.svg

<svg xmlns="http://www.w3.org/2000/svg" width="593.901" height="72.002" viewBox="-1.2 -4.001 599.901 78.002"><path fill="#5eead4" fill-rule="evenodd" stroke="#5eead4" stroke-linecap="round" stroke-width=".945" d="M531.8 31.401v3h-29.7l30.6-30.4h-33.8v64h38.8v3h-41.8v-70H540l-30.6 30.4h22.4ZM261 71.001v-3h27.6l-12.1-33.2 5.6-3.2a13.374 13.374 0 0 0 4.531-3.919Q289 24.364 289 19.501q0-15.034-22.201-15.486a68.677 68.677 0 0 0-1.399-.014h-9.2v67h-3v-70h12.2q8.124 0 13.786 1.837a21.846 21.846 0 0 1 6.114 3.013 15.496 15.496 0 0 1 6.568 11.253 21.105 21.105 0 0 1 .132 2.397 18.604 18.604 0 0 1-1.027 6.344q-1.76 4.885-6.541 7.864a20.464 20.464 0 0 1-.832.492l-3.4 1.9 12.7 34.9H261Zm330.4-54.8-9.3 7h-4.9l10.8-8.1q-2.1-6.7-6.05-9.4a15.118 15.118 0 0 0-5.66-2.321 21.013 21.013 0 0 0-4.09-.379 53.405 53.405 0 0 0-2.824.07q-2.207.117-3.926.43-2.75.5-5.5 1.95a8.84 8.84 0 0 0-3.552 3.466 11.561 11.561 0 0 0-.598 1.184q-1.4 3.2-1.4 8.2a9.172 9.172 0 0 0 2.138 5.865 13.826 13.826 0 0 0 1.912 1.935 33.701 33.701 0 0 0 5.347 3.641 43.878 43.878 0 0 0 4.503 2.159q5.8 2.4 11.65 4.9 5.85 2.5 9.9 6.4a14.009 14.009 0 0 1 2.696 3.504 11.534 11.534 0 0 1 1.354 5.496 32.221 32.221 0 0 1-.436 5.488q-.517 2.983-1.645 5.336a14.494 14.494 0 0 1-2.869 4.076 14.06 14.06 0 0 1-4.704 2.986Q579.5 72.001 572 72.001a39.38 39.38 0 0 1-5.979-.426q-3.161-.486-5.73-1.529a18.343 18.343 0 0 1-3.691-1.995q-5.6-3.95-7.7-12.25l2.8-1.2q1.325 5.366 3.901 8.56a12.615 12.615 0 0 0 2.949 2.69 17.295 17.295 0 0 0 4.659 2.068q2.111.608 4.628.875a39.659 39.659 0 0 0 4.163.207q9.357 0 14.012-3.516a11.937 11.937 0 0 0 .238-.184 10.802 10.802 0 0 0 3.239-4.475q.75-1.832 1.101-4.152a29.969 29.969 0 0 0 .31-4.473 9.172 9.172 0 0 0-2.138-5.866 13.826 13.826 0 0 0-1.912-1.934 33.157 33.157 0 0 0-5.126-3.509 43.615 43.615 0 0 0-4.774-2.291q-5.85-2.4-11.65-4.9a35.205 35.205 0 0 1-6.271-3.463 29.673 29.673 0 0 1-3.579-2.937 14.009 14.009 0 0 1-2.696-3.505 11.534 11.534 0 0 1-1.354-5.495q0-5.888 1.805-9.786a12.516 12.516 0 0 1 3.095-4.214Q560.99.185 571.27.009a54.304 54.304 0 0 1 .93-.008 24.101 24.101 0 0 1 5.302.55q3.851.868 6.676 3.104a15.223 15.223 0 0 1 .422.346 18.001 18.001 0 0 1 3.93 4.836q1.226 2.145 2.123 4.821a36.493 36.493 0 0 1 .747 2.543ZM9.9 71.001v-3h36.8l-21.2-58.3-22.3 61.3H0L25.5.901l25.5 70.1H9.9Zm190.5 0v-3h36.8L216 9.701l-22.3 61.3h-3.2L216 .901l25.5 70.1h-41.1Zm224.3-14.1 2.7 1.3a26.899 26.899 0 0 1-2.986 5.487 20.816 20.816 0 0 1-4.614 4.713 15.81 15.81 0 0 1-4.47 2.228q-4.182 1.372-10.23 1.372a31.499 31.499 0 0 1-6.704-.666q-4.066-.886-7.069-2.954a16.601 16.601 0 0 1-4.027-3.93 23.673 23.673 0 0 1-3.229-6.477q-2.271-6.792-2.271-17.073v-9.8q0-14.613 4.588-22.178a19.526 19.526 0 0 1 .912-1.372 17.385 17.385 0 0 1 9.531-6.489Q399.802.2 403.404.038A37.814 37.814 0 0 1 405.1.001q9.521 0 14.417 3.398a12.91 12.91 0 0 1 .283.202 21.356 21.356 0 0 1 5.591 6.191 28.227 28.227 0 0 1 2.009 4.009l-2.7 1.3a23.862 23.862 0 0 0-2.376-4.568 18.005 18.005 0 0 0-4.124-4.382 13.045 13.045 0 0 0-3.626-1.858q-3.397-1.164-8.357-1.28a47.8 47.8 0 0 0-1.117-.012 32.254 32.254 0 0 0-3.75.206q-2.572.301-4.65 1.044a15.405 15.405 0 0 0-5.202 3.165 18.71 18.71 0 0 0-1.098 1.085q-2.8 3-4.2 8.65-1.058 4.27-1.317 10.055a87.386 87.386 0 0 0-.083 3.895v9.8q0 6.344.818 11.14a38.845 38.845 0 0 0 .582 2.81q1.023 4.129 2.794 6.843a13.26 13.26 0 0 0 1.406 1.807 17.002 17.002 0 0 0 3.572 2.945 14.769 14.769 0 0 0 2.728 1.305 20.022 20.022 0 0 0 3.524.886q2.235.364 4.876.364a40.046 40.046 0 0 0 4.634-.25q5.447-.636 8.466-2.9a18.332 18.332 0 0 0 4.648-5.2 24.635 24.635 0 0 0 1.852-3.75Zm-124.9-55.9h50v3h-23.5v67h-3v-67h-23.5v-3Zm-234.1 67h38.8v3H62.7v-70h3v67Zm53.2 0h38.8v3h-41.8v-70h3v67Zm326.8 0h38.8v3h-41.8v-70h3v67Zm-81.5-67v70h-3v-70h3Z" font-size="12" style="stroke:#5eead4;stroke-width:.25mm;fill:#5eead4"/></svg>

<svg width="593.901" height="72.002" viewBox="-1.2 -4.0010605599012266 599.9006204768601 78.00169922623957" xmlns="http://www.w3.org/2000/svg"><g id="svgGroup" stroke-linecap="round" fill-rule="evenodd" font-size="9pt" stroke="#5eead4" stroke-width="0.25mm" fill="#5eead4" style="stroke:#5eead4;stroke-width:0.25mm;fill:#5eead4"><path d="M 531.8 31.401 L 531.8 34.401 L 502.1 34.401 L 532.7 4.001 L 498.9 4.001 L 498.9 68.001 L 537.7 68.001 L 537.7 71.001 L 495.9 71.001 L 495.9 1.001 L 540 1.001 L 509.4 31.401 L 531.8 31.401 Z M 261 71.001 L 261 68.001 L 288.6 68.001 L 276.5 34.801 L 282.1 31.601 A 13.374 13.374 0 0 0 286.631 27.682 Q 289 24.364 289 19.501 Q 289 4.467 266.799 4.015 A 68.677 68.677 0 0 0 265.4 4.001 L 256.2 4.001 L 256.2 71.001 L 253.2 71.001 L 253.2 1.001 L 265.4 1.001 Q 273.524 1.001 279.186 2.838 A 21.846 21.846 0 0 1 285.3 5.851 A 15.496 15.496 0 0 1 291.868 17.104 A 21.105 21.105 0 0 1 292 19.501 A 18.604 18.604 0 0 1 290.973 25.845 Q 289.213 30.73 284.432 33.709 A 20.464 20.464 0 0 1 283.6 34.201 L 280.2 36.101 L 292.9 71.001 L 261 71.001 Z M 591.4 16.201 L 582.1 23.201 L 577.2 23.201 L 588 15.101 Q 585.9 8.401 581.95 5.701 A 15.118 15.118 0 0 0 576.29 3.38 A 21.013 21.013 0 0 0 572.2 3.001 A 53.405 53.405 0 0 0 569.376 3.071 Q 567.169 3.188 565.45 3.501 Q 562.7 4.001 559.95 5.451 A 8.84 8.84 0 0 0 556.398 8.917 A 11.561 11.561 0 0 0 555.8 10.101 Q 554.4 13.301 554.4 18.301 A 9.172 9.172 0 0 0 556.538 24.166 A 13.826 13.826 0 0 0 558.45 26.101 A 33.701 33.701 0 0 0 563.797 29.742 A 43.878 43.878 0 0 0 568.3 31.901 Q 574.1 34.301 579.95 36.801 Q 585.8 39.301 589.85 43.201 A 14.009 14.009 0 0 1 592.546 46.705 A 11.534 11.534 0 0 1 593.9 52.201 A 32.221 32.221 0 0 1 593.464 57.689 Q 592.947 60.672 591.819 63.025 A 14.494 14.494 0 0 1 588.95 67.101 A 14.06 14.06 0 0 1 584.246 70.087 Q 579.5 72.001 572 72.001 A 39.38 39.38 0 0 1 566.021 71.575 Q 562.86 71.089 560.291 70.046 A 18.343 18.343 0 0 1 556.6 68.051 Q 551 64.101 548.9 55.801 L 551.7 54.601 Q 553.025 59.967 555.601 63.161 A 12.615 12.615 0 0 0 558.55 65.851 A 17.295 17.295 0 0 0 563.209 67.919 Q 565.32 68.527 567.837 68.794 A 39.659 39.659 0 0 0 572 69.001 Q 581.357 69.001 586.012 65.485 A 11.937 11.937 0 0 0 586.25 65.301 A 10.802 10.802 0 0 0 589.489 60.826 Q 590.239 58.994 590.59 56.674 A 29.969 29.969 0 0 0 590.9 52.201 A 9.172 9.172 0 0 0 588.762 46.335 A 13.826 13.826 0 0 0 586.85 44.401 A 33.157 33.157 0 0 0 581.724 40.892 A 43.615 43.615 0 0 0 576.95 38.601 Q 571.1 36.201 565.3 33.701 A 35.205 35.205 0 0 1 559.029 30.238 A 29.673 29.673 0 0 1 555.45 27.301 A 14.009 14.009 0 0 1 552.754 23.796 A 11.534 11.534 0 0 1 551.4 18.301 Q 551.4 12.413 553.205 8.515 A 12.516 12.516 0 0 1 556.3 4.301 Q 560.99 0.185 571.27 0.009 A 54.304 54.304 0 0 1 572.2 0.001 A 24.101 24.101 0 0 1 577.502 0.551 Q 581.353 1.419 584.178 3.655 A 15.223 15.223 0 0 1 584.6 4.001 A 18.001 18.001 0 0 1 588.53 8.837 Q 589.756 10.982 590.653 13.658 A 36.493 36.493 0 0 1 591.4 16.201 Z M 9.9 71.001 L 9.9 68.001 L 46.7 68.001 L 25.5 9.701 L 3.2 71.001 L 0 71.001 L 25.5 0.901 L 51 71.001 L 9.9 71.001 Z M 200.4 71.001 L 200.4 68.001 L 237.2 68.001 L 216 9.701 L 193.7 71.001 L 190.5 71.001 L 216 0.901 L 241.5 71.001 L 200.4 71.001 Z M 424.7 56.901 L 427.4 58.201 A 26.899 26.899 0 0 1 424.414 63.688 A 20.816 20.816 0 0 1 419.8 68.401 A 15.81 15.81 0 0 1 415.33 70.629 Q 411.148 72.001 405.1 72.001 A 31.499 31.499 0 0 1 398.396 71.335 Q 394.33 70.449 391.327 68.381 A 16.601 16.601 0 0 1 387.3 64.451 A 23.673 23.673 0 0 1 384.071 57.974 Q 381.8 51.182 381.8 40.901 L 381.8 31.101 Q 381.8 16.488 386.388 8.923 A 19.526 19.526 0 0 1 387.3 7.551 A 17.385 17.385 0 0 1 396.831 1.062 Q 399.802 0.2 403.404 0.038 A 37.814 37.814 0 0 1 405.1 0.001 Q 414.621 0.001 419.517 3.399 A 12.91 12.91 0 0 1 419.8 3.601 A 21.356 21.356 0 0 1 425.391 9.792 A 28.227 28.227 0 0 1 427.4 13.801 L 424.7 15.101 A 23.862 23.862 0 0 0 422.324 10.533 A 18.005 18.005 0 0 0 418.2 6.151 A 13.045 13.045 0 0 0 414.574 4.293 Q 411.177 3.129 406.217 3.013 A 47.8 47.8 0 0 0 405.1 3.001 A 32.254 32.254 0 0 0 401.35 3.207 Q 398.778 3.508 396.7 4.251 A 15.405 15.405 0 0 0 391.498 7.416 A 18.71 18.71 0 0 0 390.4 8.501 Q 387.6 11.501 386.2 17.151 Q 385.142 21.421 384.883 27.206 A 87.386 87.386 0 0 0 384.8 31.101 L 384.8 40.901 Q 384.8 47.245 385.618 52.041 A 38.845 38.845 0 0 0 386.2 54.851 Q 387.223 58.98 388.994 61.694 A 13.26 13.26 0 0 0 390.4 63.501 A 17.002 17.002 0 0 0 393.972 66.446 A 14.769 14.769 0 0 0 396.7 67.751 A 20.022 20.022 0 0 0 400.224 68.637 Q 402.459 69.001 405.1 69.001 A 40.046 40.046 0 0 0 409.734 68.751 Q 415.181 68.115 418.2 65.851 A 18.332 18.332 0 0 0 422.848 60.651 A 24.635 24.635 0 0 0 424.7 56.901 Z M 299.8 1.001 L 349.8 1.001 L 349.8 4.001 L 326.3 4.001 L 326.3 71.001 L 323.3 71.001 L 323.3 4.001 L 299.8 4.001 L 299.8 1.001 Z M 65.7 68.001 L 104.5 68.001 L 104.5 71.001 L 62.7 71.001 L 62.7 1.001 L 65.7 1.001 L 65.7 68.001 Z M 118.9 68.001 L 157.7 68.001 L 157.7 71.001 L 115.9 71.001 L 115.9 1.001 L 118.9 1.001 L 118.9 68.001 Z M 445.7 68.001 L 484.5 68.001 L 484.5 71.001 L 442.7 71.001 L 442.7 1.001 L 445.7 1.001 L 445.7 68.001 Z M 364.2 1.001 L 364.2 71.001 L 361.2 71.001 L 361.2 1.001 L 364.2 1.001 Z"/></g></svg>
